storage/app/icons/phosphoricons/thin/taxi-thin.svg

<svg xmlns="http://www.w3.org/2000/svg" fill="currentColor" viewBox="0 0 256 256"><path d="M240 108h-13.68l-28.54-49.95a12 12 0 0 0-10.42-6h-24.65l-13-32.46A12 12 0 0 0 138.58 12h-21.16a12 12 0 0 0-11.15 7.54L93.29 52H68.64a12 12 0 0 0-10.42 6l-28.54 50H16a4 4 0 0 0 0 8h12v84a12 12 0 0 0 12 12h24a12 12 0 0 0 12-12v-20h104v20a12 12 0 0 0 12 12h24a12 12 0 0 0 12-12v-84h12a4 4 0 0 0 0-8M113.7 22.51a4 4 0 0 1 3.72-2.51h21.16a4 4 0 0 1 3.72 2.51L154.09 52h-52.18ZM65.17 62a4 4 0 0 1 3.47-2h118.72a4 4 0 0 1 3.47 2l26.28 46H38.89ZM68 200a4 4 0 0 1-4 4H40a4 4 0 0 1-4-4v-20h32Zm148 4h-24a4 4 0 0 1-4-4v-20h32v20a4 4 0 0 1-4 4m4-32H36v-56h184ZM60 144a4 4 0 0 1 4-4h16a4 4 0 0 1 0 8H64a4 4 0 0 1-4-4m112 0a4 4 0 0 1 4-4h16a4 4 0 0 1 0 8h-16a4 4 0 0 1-4-4"/></svg>

<svg xmlns="http://www.w3.org/2000/svg" viewBox="0 0 256 256" fill="currentColor"><path d="M240,108H226.32L197.78,58.05a12,12,0,0,0-10.42-6H162.71l-13-32.46A12,12,0,0,0,138.58,12H117.42a12,12,0,0,0-11.15,7.54L93.29,52H68.64a12,12,0,0,0-10.42,6L29.68,108H16a4,4,0,0,0,0,8H28v84a12,12,0,0,0,12,12H64a12,12,0,0,0,12-12V180H180v20a12,12,0,0,0,12,12h24a12,12,0,0,0,12-12V116h12a4,4,0,0,0,0-8ZM113.7,22.51A4,4,0,0,1,117.42,20h21.16a4,4,0,0,1,3.72,2.51L154.09,52H101.91ZM65.17,62a4,4,0,0,1,3.47-2H187.36a4,4,0,0,1,3.47,2l26.28,46H38.89ZM68,200a4,4,0,0,1-4,4H40a4,4,0,0,1-4-4V180H68Zm148,4H192a4,4,0,0,1-4-4V180h32v20A4,4,0,0,1,216,204Zm4-32H36V116H220ZM60,144a4,4,0,0,1,4-4H80a4,4,0,0,1,0,8H64A4,4,0,0,1,60,144Zm112,0a4,4,0,0,1,4-4h16a4,4,0,0,1,0,8H176A4,4,0,0,1,172,144Z"/></svg>
